X: 40509
T: Tommy Doyle's
R: jig
M: 6/8
K: Adorian
A,CE ABc|{c}BAG .Az2|A,CE EFG|{E}~F3 GEE|
A,CE ABc|(cB){A}B GBc|.B/.c/dB cBA|BGE DCB,|
A,CE ABc|{c}BAG .AA,B,|CDB, C.E/.F/G|FDF GEE|
A,CE ABc|(cB){A}B GBc|.B/.c/dB cBA|BGE DCB,||
.A,ec ~A2A,|.A,ec ~A3|.A,ec ABc|(cB){A}B cAA|
.A,ec ABc|{c}BAB .GBc|.B/.c/dB c>BA|BGE DCB,|
.A,ec ~A2A,|.A,ec ~A3|.A,ec ABc|(B/c/d)B {d}(cAA)|
.A,ec ABc|~B3 GBc|.B/.c/dB cBA|BGE DCB,||

